!!!!SEGMENT: pl-cz--i-37--005_jarecki-jozef--requiem-benedicus.krn
!!!cenid: 18xx:850
!!!COM: Jarecki, Józef
!!!COM-rismID: pe41001558
!!!CDT: 1818/08/02-1871/12/23
!!!CNT: Polish
!!!OPR: Requiem
!!!OTL: Benedicus
!!!OMV: 005
!!!PDT:
!!!AGN: Sacred; Requiem
!!!SMS-siglum: PL-CZ
!!!SMS-shelfmark: I-37
!!!SMS-shelfwork: 001-005 M
!!!SMS-variant:
!!!SMS-altvar:
!!!NIFC-rismSourceID: 300000525
!!!NIFC-rismChildID: 300000525
!!!NIFC-islandoraID: pl-cz:31603
!!!URL-pdf-islandora: https://repozytorium.nifc.pl/islandora/object/pl-cz%3A31603/datastream/PDF/view
!!!URL-scan: https://polish.musicsources.pl/pl/lokalizacje/galeria/rekopisy/6730/1 @EN{Scan on Polish Music Sources Website} @PL{Skany w portalu Dziedzictwo Muzyki Polskiej w otwartym dostępie}
!!!ONB-nifc: UWAGA: części Requiem: Requiem, Dies irae, Domine Jesu Christe, Sanctus, Benedictus, Agnus, Lux aeterna
!!!AIN: 1 bass 2 empty 2 tenor
!!!key:
**kern	**kern	**kern	**kern	**kern	**text
*part5	*part4	*part3	*part2	*part1	*part1
*staff5	*staff4	*staff3	*staff2	*staff1	*staff1
*Iempty	*Iempty	*Ibass	*Itenor	*Itenor	*
*	*	*I"Basso	*I"Tenore II	*I"Tenore I	*
*	*	*I'B.	*I'T. II	*I'T. I	*
*clefF4	*clefG2	*clefF4	*clefG2	*clefG2	*
*k[b-e-]	*k[b-e-]	*k[b-e-]	*k[b-e-]	*k[b-e-]	*
*B-:	*B-:	*B-:	*B-:	*B-:	*
*M4/4	*M4/4	*M4/4	*M4/4	*M4/4	*
*met(c)	*met(c)	*met(c)	*met(c)	*met(c)	*
=1	=1	=1	=1	=1	=1
!	!	!	!	!LO:TX:a:B:t=Benedictus	!
8BB-\L	8B-/L	1r	1r	1r	.
16D\L	16d/L	.	.	.	.
16F\JJ	16f/JJ	.	.	.	.
4B-\	4b-\	.	.	.	.
4r	4r	.	.	.	.
4B-\	4b-\	.	.	.	.
=2	=2	=2	=2	=2	=2
4E-\	4e-/	1r	1r	1r	.
12G\L	(12g/L	.	.	.	.
12B-\	12b-\	.	.	.	.
12e-\J	12ee-\J)	.	.	.	.
4g\	4gg\	.	.	.	.
8r	8r	.	.	.	.
8En\ 8G\ 8B-\ 8c#X\	8gg\	.	.	.	.
=3	=3	=3	=3	=3	=3
4F\ 4B-\ 4d\	8ff\L	1r	1r	1r	.
.	8bb-\	.	.	.	.
4F\ 4B-\ 4d\	8.dd\	.	.	.	.
.	16ff\Jk	.	.	.	.
2F\ 2c\ 2e-\	8ff\L	.	.	.	.
.	8f\	.	.	.	.
.	8g\	.	.	.	.
.	8a\J	.	.	.	.
=4	=4	=4	=4	=4	=4
*	*^	*	*	*	*
4B-\	4cc/	2e-\ 2f\	1r	1r	1r	.
4F\	8dd/L	.	.	.	.	.
.	8cc/J	.	.	.	.	.
4BB-/	4d/ 4b-/	2ryy	.	.	.	.
4r	4raa	.	.	.	.	.
!!linebreak:original
=5	=5	=5	=5	=5	=5	=5
*	*	*^	*	*	*	*
!	!	!	!	!	!LO:TX:t=P:problem=tekst podpisany tylko w Tenor I	!	!
2B-\	2d/ 2f/ 2b-/	2ryy	2ryy	2B-\	2b-/	2b-\	Be-
2F\	2cc/	2f\	4b-\	2F\	2a/	2cc\	-ne-
.	.	.	4a\	.	.	.	.
*	*v	*v	*v	*	*	*	*
=6	=6	=6	=6	=6	=6
4B-\	4f/ 4b-/ 4dd/	4B-\	4b-\	4dd\	-dic-
4BB-/	4d/ 4f/ 4b-/	4BB-/	4b-\	4b-\	-tus
4r	4r	4r	4r	4r	.
4D\	4f\ 4b-\ 4gg\	4D\	4b-\	4ff\	qui
=7	=7	=7	=7	=7	=7
4C/	4f\ 4a\ 4ee-\	4C/	4a/	4ee-\	ve-
4BB-/	4f\ 4b-\ 4dd\	8BB-/	8b-/	8dd\	-nit
.	.	8BB-/	8b-/	8dd\	in
4E-\	4f/ 4a/ 4cc/	4E-\	4a/	4cc\	no-
8D\L	8f/L 8b-/	8D\L	8b-/	8b-\	-mi-
!	!	!LO:TX:t=P:problem=wysokość nuty niejasna,\nad nutą bemol	!	!	!
8BB-/J	8f/J 8b-/ 8dd/	8BB-\J	8b-/	8dd\	-ne
=8	=8	=8	=8	=8	=8
*	*^	*	*	*	*
2F\	2f/ 2b-/ 2dd/	2ryy	4.F\	4.b-/	4.dd\	Do-
.	.	.	8F\	8b-/	8dd\	-mi-
4FF/	4f/ 4a/ 4cc/	8f\L	4FF/	4a/	4cc\	-ni
.	.	8fyy\	.	.	.	.
4r	4ryy	8e-\ 8g\	4r	4r	4r	.
.	.	8f\J 8a\	.	.	.	.
=9	=9	=9	=9	=9	=9	=9
*	*	*^	*	*	*	*
2B-\	2d/ 2f/ 2b-/	2ryy	2ryy	2B-\	4b-\	4b-\	Be-
.	.	.	.	.	4b-\	4b-\	-ne-
2A\	2cc/	2f\	4b-\	2F\	4a/	4cc\	-dic-
.	.	.	4a\	.	8a/	8cc\	-tus
.	.	.	.	.	8a/	8cc\	qui
*	*v	*v	*v	*	*	*	*
!!LO:PB:g=original
=10	=10	=10	=10	=10	=10
4B-\	4f/ 4b-/ 4dd/	4B-\	4b-\	4dd\	ve-
4BB-/	4d/ 4f/ 4b-/	4BB-/	4b-\	4b-\	-nit
4r	4r	4r	4r	4r	.
4B-\	4f/ 4b-/ 4dd/	4BB-/	4b-\	4dd\	in
=11	=11	=11	=11	=11	=11
*	*	*	*^	*	*
4BB-\ 4B-\	4d/ 4f/ 4cc/	4BB-/	4cc/	4f\	4cc\	no-
4BB-\ 4B-\	4d/ 4g/ 4b-/	8BB-/	8dd/	8g\	8b-\	-mi-
.	.	8BB-/	8dd/	8g\	8b-\	-ne
4C\ 4c\	4c/ 4f/ 4a/	4C/	4cc/	4f\	4a/	Do-
4C\ 4G\ 4B-\	4c/ 4en/ 4g/	4C/	4b-/	4en\	4g/	-mi-
=12	=12	=12	=12	=12	=12	=12
2F\ 2A\	8c/L 8e-/	2F\	4a/	4f\	4f/	-ni
.	8c/	.	.	.	.	.
.	8f/ 8a/	.	4r	2.ryy	4r	.
.	8c/J	.	.	.	.	.
*	*tremolo	*	*	*	*	*
4r	8f/L 8a/	4r	4r	.	4r	.
.	8c/	.	.	.	.	.
4F\	8f/ 8a/	4F\	4a/	.	4a/	O-
.	8c/J	.	.	.	.	.
*	*	*	*v	*v	*	*
=13	=13	=13	=13	=13	=13
4En\	8g/L 8b-/	4En\	4g/	4b-/	-san-
.	8c/	.	.	.	.
4G\	8g/ 8b-/	4G\	4g/	4b-/	-na
.	8c/J	.	.	.	.
4E\	8g/L 8b-/	4E\	4g/	4b-/	in
.	8c/	.	.	.	.
4C/	8en/ 8g/ 8b-/	4C/	4g/	4b-/	ex-
.	8c/J	.	.	.	.
=14	=14	=14	=14	=14	=14
4F\	8f/L 8a/	4F\	4f/	4a/	-cel-
.	8c/	.	.	.	.
4c\	8f/ 8a/	4c\	4f/	4a/	-sis
.	8c/J	.	.	.	.
4A\	8f/L 8a/	4A\	4r	4r	.
.	8c/	.	.	.	.
4F\	8f/ 8a/	4F\	4f/	4a/	o-
.	8c/J	.	.	.	.
=15	=15	=15	=15	=15	=15
4En\	8g/L 8b-/	4En\	4g/	4b-/	-san-
.	8c/	.	.	.	.
4G\	8g/ 8b-/	4C\	4g/	4b-/	-na
.	8c/J	.	.	.	.
4E\	8g/L 8b-/	4r	4g/	4b-/	in
.	8c/	.	.	.	.
4C/	8en/ 8g/ 8b-/	4r	4g/	4b-/	ex-
.	8c/J	.	.	.	.
=16	=16	=16	=16	=16	=16
*	*	*	*^	*	*
4F\	8f/L 8a/	4r	4f/	2ryy	4a/	-cel-
.	8c/	.	.	.	.	.
8.FF/L	8.f/ 8.a/	8r	8f/	.	8a/	-sis
.	.	8FF/	8r	.	8r	.
16FF/Jk 16F/	16a/Jk 16cc/	.	.	.	.	.
2FF/ 2F/	2a\ 2cc\ 2ff\	2FF/	8r	8ryy	8r	.
.	.	.	8cc/	8a\	8ff\	o-
.	.	.	4cc/	4a\	4ff\	-san-
!!linebreak:original
=17	=17	=17	=17	=17	=17	=17
8.BB-\L 8.B-\	8.f/L 8.b-/ 8.dd/	4BB-/	4b-/	4f\	4dd\	-na
16BB-\K 16B-\	16f/K 16b-/ 16dd/	.	.	.	.	.
8.BB-\ 8.B-\	8.f/ 8.b-/ 8.dd/	4r	4.ryy	4r	4r	.
16BB-\Jk 16B-\	16f/Jk 16b-/ 16dd/	.	.	.	.	.
2BBn\ 2Bn\	2f/ 2a-X/ 2dd/	8r	.	8r	8r	.
.	.	8BBn/	8a-X/	8f\	8dd\	o-
.	.	4BB/	4a-/	4f\	4dd\	-san-
=18	=18	=18	=18	=18	=18	=18
*tremolo	*	*	*	*	*	*
16C\ 16c\LL	4f/ 4an/ 4cc/	4C/	4a/	4a\	4cc\	-na
16C\ 16c\	.	.	.	.	.	.
16C\ 16c\	.	.	.	.	.	.
16C\ 16c\	.	.	.	.	.	.
16C\ 16c\	4a\ 4cc\ 4ff\	8C/	8cc/	8a\	8ff\	in
16C\ 16c\	.	.	.	.	.	.
16C\ 16c\	.	8C/	8cc/	8a\	8ff\	ex-
16C\ 16c\	.	.	.	.	.	.
16C\ 16c\	4a\ 4cc\ 4ff\	2C/	(4cc/	(4a\	(4ff\	-cel-
16C\ 16c\	.	.	.	.	.	.
16C\ 16c\	.	.	.	.	.	.
16C\ 16c\	.	.	.	.	.	.
16C\ 16c\	4a\ 4cc\ 4een\	.	4b-/)	4g\)	4een\)	.
16C\ 16c\	.	.	.	.	.	.
16C\ 16c\	.	.	.	.	.	.
16C\ 16c\JJ	.	.	.	.	.	.
*Xtremolo	*	*	*	*	*	*
=19	=19	=19	=19	=19	=19	=19
4AA\ 4A\	4a\ 4cc\ 4ff\	4F\	4cc/	4a\	4ff\	-sis
4r	8f/L	4r	4r	4ryy	4r	.
.	8g/J	.	.	.	.	.
2r	8a/L	2r	2r	2ryy	2r	.
.	8b-\	.	.	.	.	.
.	8cc\	.	.	.	.	.
.	8dd\J	.	.	.	.	.
*	*	*	*v	*v	*	*
=20	=20	=20	=20	=20	=20
*^	*	*	*	*	*
1c/ 1e-/	2F\	8ff\L	1r	1r	1r	.
.	.	8een\	.	.	.	.
.	.	8ee-X\	.	.	.	.
.	.	8dd\J	.	.	.	.
.	2Fyy\	8cc\L	.	.	.	.
.	.	8f\	.	.	.	.
.	.	8g\	.	.	.	.
.	.	8a\J	.	.	.	.
*v	*v	*	*	*	*	*
!!LO:LB:g=original
=21	=21	=21	=21	=21	=21
*	*^	*	*	*	*
*	*	*^	*	*	*	*
2B-\	2d/ 2f/ 2b-/	2ryy	2ryy	2B-\	2b-/	2b-/	Be-
2F\	2cc/	2f\	4b-\	2F\	2a/	2cc/	-ne-
.	.	.	4a\	.	.	.	.
*	*v	*v	*v	*	*	*	*
=22	=22	=22	=22	=22	=22
4B-\	4f/ 4b-/ 4dd/	4B-\	4b-\	4dd\	-dic-
4BB-/	4d/ 4f/ 4b-/	4BB-/	4b-\	4b-\	-tus
4r	4r	4r	4r	4r	.
4D\	4f\ 4b-\ 4gg\	4D\	4b-\	4ff\	qui
=23	=23	=23	=23	=23	=23
4C/	4f\ 4a\ 4ee-\	4C/	4a/	4ee-\	ve-
4BB-/	4f\ 4b-\ 4dd\	8BB-/	8b-/	8dd\	-nit
.	.	8BB-/	8b-/	8dd\	in
4E-\	4f/ 4a/ 4cc/	4E-\	4a/	4cc\	no-
8D\L	8f/L 8b-/	8D\L	8b-/	8b-\	-mi-
8BB-/J	8f/J 8b-/ 8dd/	8BB-\J	8b-/	8dd\	-ne
=24	=24	=24	=24	=24	=24
2F\	2f/ 2b-/ 2dd/	4.F\	4.b-\	4.dd\	Do-
.	.	8F\	8b-\	8dd\	-mi-
4FF/	8f/L 8a/ 8cc/	4F\	4a/	4cc\	-ni
.	8d/ 8f/	.	.	.	.
4F\	8en/ 8g/	4r	4r	4r	.
.	8e-X/J 8f/ 8a/	.	.	.	.
!!linebreak:original
=25	=25	=25	=25	=25	=25
*	*^	*	*	*	*
*	*	*^	*	*	*	*
4BB-/	2d/ 2f/ 2b-/	2ryy	2ryy	4BB-/	4b-\	4b-/	Be-
4B-\	.	.	.	4BB-/	4b-\	4b-/	-ne-
4F\	2cc/	4ryy@	4b-\	4F\	4a/	4cc/	-dic-
4FF/	.	8ryy@	4a\	8F\	8a/	8cc/	-tus
.	.	8ryy@	.	8F\	8a/	8cc/	qui
*	*v	*v	*v	*	*	*	*
=26	=26	=26	=26	=26	=26
8B-\L	4f/ 4b-/ 4dd/	4B-\	4b-\	4dd\	ve-
8BB-\	.	.	.	.	.
8D\	4d/ 4f/ 4b-/	4BB-/	4b-\	4b-\	-nit
8F\J	.	.	.	.	.
4D\	4r	4r	4r	4r	.
4D\	4f\ 4b-\ 4gg\	4D\	4b-\	4ff\	in
=27	=27	=27	=27	=27	=27
4E-\	4g\ 4b-\ 4ff\	4E-\	4b-\	4ff\	no-
4E-\	4g\ 4cc\ 4ee-\	8E-\	8cc\	8ee-\	-mi-
.	.	8E-\	8cc\	8ee-\	-ne
4F\	4f/ 4b-/ 4dd/	4F\	4b-\	4dd\	Do-
4FF/	4e-/ 4f/ 4a/ 4cc/	4F\	4a\	4cc\	-mi-
=28	=28	=28	=28	=28	=28
4B-\	4d/ 4f/ 4b-/	4B-\	4b-\	4b-\	-ni
4F\	4r	4r	4r	4r	.
4D\	4r	4r	4r	4r	.
4BB-/	8r	4BB-/	8r	8r	.
.	8d/ 8f/ 8b-/	.	8f/	8b-\	o-
=29	=29	=29	=29	=29	=29
4F\	2c/ 2e-/ 2f/ 2a/	4F\	4f/	4a/	-san-
4C/	.	4C/	4f/	4a/	-na
4AA/	2c/ 2e-/ 2f/ 2a/	4F\	4f/	4a/	in
4FF/	.	4F\	4f/	4a/	ex-
!!linebreak:original
=30	=30	=30	=30	=30	=30
4BB-/	2d/ 2f/ 2b-/	4BB-/	4f/	4b-/	-cel-
4F\	.	4BB-/	4f/	4b-/	-sis
4D\	4r	4r	4r	4r	.
4BB-/	8r	8r	8r	8r	.
.	8d/ 8f/ 8b-/	8BB-/	8f/	8b-/	o-
=31	=31	=31	=31	=31	=31
2FF/ 2F/	2c/ 2f/ 2a/	4F\	4f/	4a/	-san-
.	.	4F\	4f/	4a/	-na
2FF/ 2F/	2f/ 2a/ 2cc/	4F\	4a/	4cc\	in
.	.	4F\	4a/	4cc\	ex-
=32	=32	=32	=32	=32	=32
4FF/ 4F/	4a\ 4cc\ 4ff\	1F\	1a/ 1cc/	1ff\	-cel-
4r	4r	.	.	.	.
4FF/ 4F/	4a\ 4cc\ 4ff\	.	.	.	.
4FF/ 4F/	4a\ 4cc\ 4ff\	.	.	.	.
=33	=33	=33	=33	=33	=33
2BB-/	2d/ 2f/ 2b-/	4BB-/	2b-\	4b-\	-sis
.	.	4r	.	4r	.
4F\	4B-/ 4d/	2r	4r	2r	.
4F\	4B-/ 4d/	.	4r	.	.
=34	=34	=34	=34	=34	=34
2BB-\ 2D\ 2F\	2B-/	1r	1r	1r	.
2r	2r	.	.	.	.
==	==	==	==	==	==
*-	*-	*-	*-	*-	*-
!!!system-decoration: [(s1,s2,s3)][(s4,s5)]
!!!ENC: Mateusz Solarz
!!!END: 2020-07-21
!!!EED: Leszek Kubiak
!!!EEV: 2020-09-29
!!!YEC: Copyright 2022 Narodowy Instytut Fryderyka Chopina (https://polishscores.org)
!!!YEM: License CC-BY-4.0 (https://creativecommons.org/licenses/by/4.0)
